**kern	**kern	**dynam
*part1	*part1	*part1
*staff2	*staff1	*
*I"Piano	*	*
*clefF4	*clefG2	*
*k[b-]	*k[b-]	*
=1	=1	=1
8D	(16aaLL	>
.	16ff#X	.
*clefG2	*	*
16dLL 16f#X 16a	16dd	.
16dJ 16f# 16a	16ff#	.
8dJ 8g 8b-	16cc#X	.
.	16eeJJ)	.
*clefF4	*	*
=	=	=
8D	(16aaLL	.
.	16ff#X	.
*clefG2	*	*
16dLL 16f#X 16a	16dd	.
16dJ 16f# 16a	16ff#	.
8dJ 8g 8b-	16cc#X	.
.	16eeJJ)	.
*clefF4	*	*
=	=	=
8D	(16aaLL	.
.	16ff#X	.
*clefG2	*	*
16dLL 16f#X 16a	16dd	.
16dJ 16f# 16a	16ff#	.
8dJ 8g 8b-	16cc#X	.
.	16eeJJ)	.
*clefF4	*	*
=	=	=
8D	(16aaLL	]
.	16ff#X	.
*^	*	*
[4f#X^	(8d'L	16dd	.
.	.	16ff#	.
.	8c#X'J	16cc#X	.
.	.	16ff#JJ	.
=	=	=	=
4.f#_	8cn'L	16ccnLL	.
.	.	16ff#X	.
.	8Bn'	16bn	.
.	.	16ff#	.
!	!	!LO:TX:b:i:t=dim.	!
.	8B-X'J	16b-X	.
.	.	16ff#JJ	.
=	=	=	=
4.f#]	8A'L	16aLL	.
.	.	16ff#X	.
.	8A-X'	16a-X	.
.	.	16ff#	.
.	8G'J	16g	.
.	.	16ff#JJ	.
*v	*v	*	*
=	=	=
8F#X'L	16f#XLL	.
.	16ff#X	.
8E#X'	16e#X	.
.	16ff#	.
8En'J)	16en	.
.	16ff#JJ	.
=	=	=
.	(8qd;/	pp
4D; 4A	4d;)) 4f#X	.
==	==	==
*-	*-	*-
!!!system-decoration: {(s1,s2)}
